X:1
T:Summer (Movement III Presto)
T:Summer (Movement III Presto)
T:The Four Seasons
T:Adapted by Matthew Spencer 
C:Antonio Vivaldi (arr. Matthew Spencer)
%%score { 1 | 2 }
L:1/8
Q:1/4=150
M:3/4
K:Bb
V:1 treble nm="Piano" snm="Pno."
V:2 bass 
V:1
"^\n"!ff! [Gg]/ z/ z/ z/ z/ z/ z/ z/ z/ z/ z/ z/ | [Ff]/ z/ z/ z/ z/ z/ z/ z/ z/ z/ z/ z/ | %2
 [Ee]/ z/ z/ z/ z/ z/ z/ z/ z/ z/ z/ z/ | [Dd]/ z/ z/ z/ z/ z/ z/ z/ z/ z/ z/ z/ | z6 | %5
 [Dd]/ z/ z/ z/ z/ z/ z/ z/ z/ z/ z/ z/ | [Cc]/ z/ z/ z/ z/ z/ z/ z/ z/ z/ z/ z/ | %7
 [B,B]/ z/ z/ z/ z/ z/ z/ z/ z/ z/ z/ z/ | [A,A]/ z/ z/ z/ z/ z/ z/ z/ z/ z/ z/ z/ | %9
 z/!mf! d/c/B/ A/G/^F/E/ D/C/B,/A,/ | z/ d/c/B/ A/G/_G/E/ D/C/B,/A,/ | %11
 z/ g/f/e/ d/c/B/A/ G/F/E/D/ | z/ g/f/e/ d/c/B/A/ G/F/E/D/ | z/ b/a/g/ f/e/d/c/ B/A/G/F/ | %14
 z/ b/a/g/ f/e/d/c/ B/A/G/F/ | z/ d'/c'/b/ a/g/_g/e/ d/c/B/A/ | z/ d'/c'/b/ a/g/_g/e/ d/c/B/A/ | %17
 z/ d'/c'/b/ a/g/_g/e/ d/c/B/A/ | z/ d'/c'/b/ a/g/_g/e/ d/c/B/A/ | %19
 z/ d/ z/ G/ z/ d/ z/ G/ z/ d/ z/ G/ | z/!f! [^FA]/[GB]/[Ac]/ [Bd]/[ce]/[d^f]/[eg]/ [fa]2 | %21
 z/ [^FA]/[GB]/[Ac]/ [Bd]/[ce]/[d^f]/[eg]/ [fa]2 | z/ [GB]/[Ac]/[Bd]/ e/[d^f]/[eg]/[fa]/ [gb]2 | %23
 z/ [^Fd]/[Ge]/[A^f]/ g/[ca]/[db]/c'/ [fd']2 | z/ [^Fd]/[Ge]/[A^f]/ g/[ca]/b/[ec']/ [fd']2 | %25
 z/ [^FA]/[GB]/[Ac]/ d/[ce]/[d^f]/[=eg]/ [fa]2 | z/ [GB]/[Ac]/[Bd]/ e/[d^f]/[eg]/[fa]/ b2 | %27
 z/ [^Fd]/[Ge]/^f/ g/[ca]/[db]/c'/ [fd']2 | b/g/d/B/ b/g/d/B/ b/g/d/B/ | %29
 d/B/G/D/ d/B/G/D/ d/B/G/D/ | G/D/B,/G,/ G/D/B,/G,/ G/D/B,/G,/ | %31
!mp! [F=B]/D/[FB]/D/ [FB]/D/[FB]/D/ [FB]/D/[FB]/D/ | %32
!mf! [Ec]/C/[Ec]/C/ [Ec]/C/[Ec]/C/ [Ec]/C/[Ec]/C/ | [G^c]/E/[Gc]/E/ [Gc]/E/[Gc]/E/ [Gc]/E/[Gc]/E/ | %34
!f! [Fd]/D/[Fd]/D/ [Fd]/D/[Fd]/D/ [Fd]/D/[Fd]/D/ | [Ad]/=E/[Ad]/E/ [Ad]/E/[Ad]/E/ [Ad]/E/[Ad]/E/ | %36
 [A_d]/=E/[Ad]/E/ [Ad]/E/[Ad]/E/ [Ad]/E/[Ad]/E/ | [FAd]/D/=E/F/ G/A/=B/^c/ d/A/B/c/ | %38
 d/=e/f/g/ a/d/e/f/ g/a/=b/^c'/!mp! | !fermata!d'/ z/ z/ z/ z/!p! a/a/^c'/ c'/=e'/e'/a'/ | %40
 a'/a/ z/ a/ g'/a/ z/ a/ f'/a/ z/ a/ | =e'/a/ z/ a/ f'/a/ z/ a/ g'/a/ z/ a/ | %42
 a'/a/ z/ a/ g'/a/ z/ a/ f'/a/ z/ a/ | !fermata![a=e']/ z/ z/ z/ z/ d/d/f/ f/a/a/d'/ | %44
 d'/d/ z/ d/ c'/d/ z/ d/ b/d/ z/ d/ | a/d/ z/ d/ b/d/ z/ d/ ^c'/d/ z/ d/ | %46
 d'/d/ z/ d/ c'/d/ z/ d/ b/d/ z/ d/ | !fermata![da]/ z/ z/ z/ z/ a'/a'/g'/ g'/f'/f'/e'/ | %48
 e'/d'/d'/c'/ c'/b/b/a/ a/g/g/f/ | f/=e/e/d/ d/c/c/B/ B/A/A/^G/ | %50
 A/ z/ ^G/ z/ A/ z/ G/ z/ A/ z/ F/ z/ | G/ z/ =E/ z/ F/ z/ D/ z/ E/ z/ ^C/ z/ | %52
 D/ z/ ^C/ z/ D/ z/ C/ z/ D/ z/ C/ z/ | D/ z/ ^C/ z/ D/ z/ C/ z/ D/ z/ C/ z/ | %54
!ff! [DFA]/ z/ D/ z/ D/ z/ [Ad]/ z/ [df]/ z/ [fa]/ z/ | %55
 [gb]/ z/ D/ z/ D/ z/ [Bd]/ z/ [dg]/ z/ [gb]/ z/ | %56
 [gb]/ z/ [CE]/ z/ [CE]/ z/ [ce]/ z/ [eg]/ z/ [gb]/ z/ | %57
 [fa]/ z/ [CF]/ z/ [CF]/ z/ [Ac]/ z/ [cf]/ z/ [fa]/ z/ | %58
 [fa]/ z/ [B,D]/ z/ [B,D]/ z/ [Bd]/ z/ [df]/ z/ [fa]/ z/ | %59
 [eg]/ z/ [B,E]/ z/ [B,E]/ z/ [GB]/ z/ [Be]/ z/ [eg]/ z/ | %60
 [eg]/ z/ [^G,C]/ z/ [G,C]/ z/ [^Gc]/ z/ [ce]/ z/ [eg]/ z/ | %61
 [dg]/ z/ [=B,D]/ z/ [B,D]/ z/ [G=B]/ z/ [Bd]/ z/ [dg]/ z/ | %62
 [df]/ z/ [=B,D]/ z/ [B,D]/ z/ [G=B]/ z/ [Bd]/ z/ [df]/ z/ | e/E/F/G/ _A/=B/c/d/ e/ z/ z/ z/ | %64
 z/ E/F/G/ _A/=B/c/d/ e/ z/ z/ z/ | z/ E/F/G/ _A/=B/c/d/ e/ z/ z/ z/ | E/c/B/c/ E/c/B/c/ E/c/B/c/ | %67
 F/c/B/c/ F/c/B/c/ F/c/B/c/ | G/c/=B/c/ G/c/B/c/ G/B/A/B/ | %69
 [Cc]/ z/ z/ z/ z/ z/ z/ z/ z/ z/ z/ z/ | [B,B]/ z/ z/ z/ z/ z/ z/ z/ z/ z/ z/ z/ | %71
 [_A,_A]/ z/ z/ z/ z/ z/ z/ z/ z/ z/ z/ z/ | [G,G]/ z/ z/ z/ z/ z/ z/ z/ z/ z/ z/ z/ | %73
!mf! [eg]/c/e/c/ e/c/e/c/ e/c/e/c/ | [dg]/=B/d/B/ d/B/d/B/ d/B/d/B/ | %75
 [eg]/c/e/c/ e/c/e/c/ e/c/e/c/ | [df]/B/d/B/ d/B/d/B/ d/B/d/B/ | [eg]/B/e/B/ e/B/e/B/ e/B/e/B/ | %78
 e/G/g/^G/ ^g/B/b/c/ c'/d/d'/e/ | e'/b/g/e/ e'/b/g/e/ e'/b/g/e/ | f/^G/^g/B/ b/c/c'/d/ d'/e/e'/f/ | %81
 f'/c'/a/f/ f'/c'/a/f/ f'/c'/a/f/ | g/B/b/c/ c'/d/d'/e/ e'/f/f'/g/ | %83
 g'/d'/b/g/ g'/d'/b/g/ g'/d'/b/g/ |!f! [ee']/ z/ z/ z/ z/ z/ z/ z/ z/ z/ z/ z/ | %85
 [^G,^G]/ z/ z/ z/ [G,G]/ z/ z/ z/ [G,G]/ z/ z/ z/ | z6 | %87
 [G,G]/ z/ z/ z/ [G,G]/ z/ z/ z/ [G,G]/ z/ z/ z/ | z6 | %89
 [F,F]/ z/ z/ z/ [F,F]/ z/ z/ z/ [F,F]/ z/ z/ z/ | z6 | %91
!ff! [Ee]/ z/ z/ z/ [Ee]/ z/ z/ z/ [Ee]/ z/ z/ z/ | z6 | %93
 [Dd]/ z/ z/ z/ [Dd]/ z/ z/ z/ [Dd]/ z/ z/ z/ | z6 | [Cc]/ z/ z/ z/ [Cc]/ z/ z/ z/ [Cc]/ z/ z/ z/ | %96
!mf! D/ z/ D/ z/ ^F/ z/ D/ z/ A/ z/ D/ z/ | B/ z/ D/ z/ c/ z/ D/ z/ d/ z/ D/ z/ | %98
 e/ z/ D/ z/ ^f/ z/ D/ z/ g/ z/ D/ z/ | a/ z/ D/ z/ b/!<(! z/ D/ z/ c'/ z/ D/ z/!<)! | %100
!f! d'/d/c/B/ A/G/^F/E/ D/C/B,/A,/ | z/ d/c/B/ A/G/^F/E/ D/C/B,/A,/ | z/ g/f/e/ d/c/B/A/ G/F/E/D/ | %103
 z/ g/f/e/ d/c/B/A/ G/F/E/D/ | z/ b/a/g/ f/e/d/c/ B/A/G/F/ | z/ b/a/g/ f/e/d/c/ B/A/G/F/ | %106
 z/ d'/c'/b/ a/g/^f/e/ d/c/B/A/ | z/ d'/c'/b/ a/g/^f/e/ d/c/B/A/ | %108
 d/G/ z/ G/ e/G/ z/ G/ ^f/G/ z/ G/ | g/G/ z/ G/ f/G/ z/ G/ e/G/ z/ G/ | %110
!mf! d/G/A/B/ c/d/=e/^f/ g/a/b/a/ | g/f/e/d/ c/B/A/G/ ^F/E/D/C/ | %112
 B,/G,/B,/G,/ B,/G,/B,/G,/ B,/G,/B,/G,/ | E/D/^F/=E/ G/F/A/G/ B/A/c/B/ | %114
 d/c/e/d/ ^f/=e/g/f/ a/g/b/a/ | E/D/^F/=E/ G/F/A/G/ B/A/c/B/ | d/c/e/d/ ^f/=e/g/f/ a/g/b/a/ | %117
!f! D/ z/ z/ z/ z/ d/c/B/ A/G/F/!ff!E/ | G/D/B,/G,/ G/D/B,/G,/ G/D/B,/G,/ | %119
 [EG]/G,/[EG]/G,/ [EG]/G,/[EG]/G,/ [EG]/G,/[EG]/G,/ | %120
 [D^F]/A,/[DF]/A,/ [DF]/A,/[DF]/A,/ [DF]/A,/[DF]/A,/ | G/D/B,/G,/ G/D/B,/G,/ G/D/B,/G,/ | %122
 [EG]/G,/[EG]/G,/ [EG]/G,/[EG]/G,/ [EG]/G,/[EG]/G,/ | %123
 [D^F]/A,/[DF]/A,/ [DF]/A,/[DF]/A,/ [DF]/A,/[DF]/A,/ | %124
 [DG]/B,/[DG]/B,/ [GB]/D/[GB]/D/ [Bd]/G/[Bd]/G/ | [dg]/B/[dg]/B/ [gb]/d/[gb]/d/ [gb]/d/[gb]/d/ | %126
 [dg]/B/[dg]/B/ [Bd]/G/[Bd]/G/ [GB]/D/[GB]/D/ | [G,G]6 |] %128
V:2
 z/ [G,,G,]/[G,G]/[G,,G,]/ [G,G]/[G,,G,]/[G,G]/[G,,G,]/ [G,G]/[G,,G,]/[G,G]/[G,,G,]/ | %1
 z/ [G,,G,]/[G,G]/[G,,G,]/ [G,G]/[G,,G,]/[G,G]/[G,,G,]/ [G,G]/[G,,G,]/[G,G]/[G,,G,]/ | %2
 z/ [G,,G,]/[G,G]/[G,,G,]/ [G,G]/[G,,G,]/[G,G]/[G,,G,]/ [G,G]/[G,,G,]/[G,G]/[G,,G,]/ | %3
 z/ [G,,G,]/[G,G]/[G,,G,]/ [G,G]/[G,,G,]/[G,G]/[G,,G,]/ [G,G]2 | z6 | %5
 z/ [D,,D,]/[D,D]/[D,,D,]/ [D,D]/[D,,D,]/[D,D]/[D,,D,]/ [D,D]/[D,,D,]/[D,D]/[D,,D,]/ | %6
 z/ [D,,D,]/[D,D]/[D,,D,]/ [D,D]/[D,,D,]/[D,D]/[D,,D,]/ [D,D]/[D,,D,]/[D,D]/[D,,D,]/ | %7
 z/ [D,,D,]/[D,D]/[D,,D,]/ [D,D]/[D,,D,]/[D,D]/[D,,D,]/ [D,D]/[D,,D,]/[D,D]/[D,,D,]/ | %8
 z/ [D,,D,]/[D,D]/[D,,D,]/ [D,D]/[D,,D,]/[D,D]/[D,,D,]/ [D,D]2 | z6 | %10
 G,,/G,/G,,/G,/ G,,/G,/G,,/G,/ G,,/G,/G,,/G,/ | G,,/G,/G,,/G,/ G,,/G,/G,,/G,/ G,,/G,/G,,/G,/ | %12
 C,/C/C,/C/ C,/C/C,/C/ C,/C/C,/C/ | C,/C/C,/C/ C,/C/C,/C/ C,/C/C,/C/ | %14
 E,/E/E,/E/ E,/E/E,/E/ E,/E/E,/E/ | E,/E/E,/E/ E,/E/E,/E/ E,/E/E,/E/ | %16
 G,/G/G,/G/ G,/G/G,/G/ G,/G/G,/G/ | G,/G/G,/G/ G,/G/G,/G/ G,/G/G,/G/ | %18
 G,/G/G,/G/ G,/G/G,/G/ G,/G/G,/G/ | G,/ z/ G/ z/ G,/ z/ G/ z/ G,/ z/ G/ z/ | %20
 D,/D/D,/D/ D,/D/D,/D/ D,/D/D,/D/ | D,/C/D,/C/ D,/C/D,/C/ D,/C/D,/C/ | %22
 D,/B,/D,/B,/ D,/B,/D,/B,/ D,/B,/D,/B,/ | D,/A,/D,/A,/ D,/A,/D,/A,/ D,/A,/D,/A,/ | %24
 D,/D/D,/D/ D,/D/D,/D/ D,/D/D,/D/ | D,/C/D,/C/ D,/C/D,/C/ D,/C/D,/C/ | %26
 D,/B,/D,/B,/ D,/B,/D,/B,/ D,/B,/D,/B,/ | D,/A,/D,/A,/ D,/A,/D,/A,/ D,/A,/D,/A,/ | %28
 G,,/G,/D,/G,/ G,,/G,/D,/G,/ G,,/G,/D,/G,/ | G,,/G,/D,/G,/ G,,/G,/D,/G,/ G,,/G,/D,/G,/ | %30
 G,,D, G,,D, G,,D, | G,,/G,/G,,/G,/ G,,/G,/G,,/G,/ G,,/G,/G,,/G,/ | %32
 C,,/C,/C,,/C,/ C,,/C,/C,,/C,/ C,,/C,/C,,/C,/ | A,,/A,/A,,/A,/ A,,/A,/A,,/A,/ A,,/A,/A,,/A,/ | %34
 D,,/D,/D,,/D,/ D,,/D,/D,,/D,/ D,,/D,/D,,/D,/ | %35
 A,,,/A,,/A,,,/A,,/ A,,,/A,,/A,,,/A,,/ A,,,/A,,/A,,,/A,,/ | %36
 A,,,/A,,/A,,,/A,,/ A,,,/A,,/A,,,/A,,/ A,,,/A,,/A,,,/A,,/ | [D,,D,]6 |!>(! z6!>)! | %39
 [D,F]/ z/ z/ z/ z/ z/ z/ z/ z/ z/ z/ z/ | z D z D z D | z D z D z D | z D z D z D | %43
 D/ z/ z/ z/ z/ z/ z/ z/ z/ z/ z/ z/ | z D z D z D | z D z D z D | z D z D z D | %47
 D/ z/ z/ z/ z/ z/ z/ z/ z/ z/ z/ z/ | z6 | z6 |!<(! z/ D/ z/ D,/ z/ D/ z/ D,/ z/ D/ z/ D,/!<)! | %51
 z/ D/ z/ D,/ z/ D/ z/ D,/ z/ D/ z/ D,/ | z/ D/ z/ A,/ z/ D/ z/ A,/ z/ D/ z/ A,/ | %53
 z/ D/ z/ A,/ z/ D/ z/ A,/ z/ D/ z/ A,/ | D,,/D,/C,/B,,/ A,,/G,,/F,,/=E,,/ D,,2 | %55
 G,,/G,/F,/E,/ D,/C,/B,,/A,,/ G,,2 | C,,/C,/B,,/A,,/ G,,/F,,/=E,,/D,,/ C,,2 | %57
 F,,/F,/=E,/D,/ C,/B,,/A,,/G,,/ F,,2 | B,,,/B,,/A,,/G,,/ F,,/E,,/D,,/C,,/ B,,,2 | %59
 E,,/E,/D,/C,/ B,,/A,,/G,,/F,,/ E,,2 | ^G,,,/^G,,/=G,,/F,,/ E,,/D,,/C,,/B,,,/ G,,,2 | %61
 =B,,,/=B,,/A,,/G,,/ F,,/E,,/D,,/C,,/ B,,,2 | G,,,/G,,/F,,/E,,/ D,,/C,,/=B,,,/A,,,/ G,,,2 | %63
 C,,/C/B,/_A,/ G,/F,/E,/D,/ C,/C/G,/E,/ | C,/C/B,/_A,/ G,/F,/E,/D,/ C,/C/G,/E,/ | %65
 C,/C/B,/_A,/ G,/F,/E,/D,/ C,/C/G,/E,/ | E,,E, E,,E, E,,E, | F,,F, F,,F, F,,F, | %68
 G,,G, G,,G, G,,G, | %69
 [C,,C,]/[C,,C,]/[C,C]/[C,,C,]/ [C,C]/[C,,C,]/[C,C]/[C,,C,]/ [C,C]/[C,,C,]/[C,C]/[C,,C,]/ | %70
 z/ [C,,C,]/[C,C]/[C,,C,]/ [C,C]/[C,,C,]/[C,C]/[C,,C,]/ [C,C]/[C,,C,]/[C,C]/[C,,C,]/ | %71
 z/ [C,,C,]/[C,C]/[C,,C,]/ [C,C]/[C,,C,]/[C,C]/[C,,C,]/ [C,C]/[C,,C,]/[C,C]/[C,,C,]/ | %72
 z/ [C,,C,]/[C,C]/[C,,C,]/ [C,C]/[C,,C,]/[C,C]/[C,,C,]/ [C,C]2 | %73
 C,/ z/ C/=B,/ C/ z/ C,/ z/ C,/ z/ C/ z/ | G,,6 | C,/ z/ C/=B,/ C/ z/ C,/ z/ C,/ z/ C/ z/ | B,,6 | %77
 E,,/ z/ E,/D,/ E,/ z/ E,,/ z/ E,,/ z/ E,/ z/ | G,,6 | %79
 G,,/ z/ G,/F,/ G,/ z/ G,,/ z/ G,,/ z/ G,/ z/ | ^G,,6 | %81
 A,,/ z/ A,/G,/ A,/ z/ A,,/ z/ A,,/ z/ A,/ z/ | B,,6 | %83
 =B,,/ z/ =B,/A,/ B,/ z/ B,,/ z/ B,,/ z/ B,/ z/ | %84
 [C,,C,]/[C,,C,]/[C,C]/[C,,C,]/ [C,C]/[C,,C,]/[C,C]/[C,,C,]/ [C,C]/[C,,C,]/[C,C]/[C,,C,]/ | %85
 z/ [C,,C,]/[C,C]/[C,,C,]/ z/ [C,,C,]/[C,C]/[C,,C,]/ z/ [C,,C,]/[C,C]/[C,,C,]/ | %86
 [=B,,=B,]/[_C,,B,,]/[B,,B,]/[C,,B,,]/ [B,,B,]/[C,,B,,]/[B,,B,]/[C,,B,,]/ [B,,B,]/[C,,B,,]/[B,,B,]/[C,,B,,]/ | %87
 z/ [B,,,B,,]/[B,,B,]/[B,,,B,,]/ z/ [B,,,B,,]/[B,,B,]/[B,,,B,,]/ z/ [B,,,B,,]/[B,,B,]/[B,,,B,,]/ | %88
 [A,,A,]/[A,,,A,,]/[A,,A,]/[A,,,A,,]/ [A,,A,]/[A,,,A,,]/[A,,A,]/[A,,,A,,]/ [A,,A,]/[A,,,A,,]/[A,,A,]/[A,,,A,,]/ | %89
 z/ [_A,,,_A,,]/[A,,_A,]/[A,,,A,,]/ z/ [A,,,A,,]/[A,,A,]/[A,,,A,,]/ z/ [A,,,A,,]/[A,,A,]/[A,,,A,,]/ | %90
 [_A,,_A,]/[G,,G,]/[G,G]/[G,,G,]/ [G,G]/[G,,G,]/[G,G]/[G,,G,]/ [G,G]/[G,,G,]/[G,G]/[G,,G,]/ | %91
 z/ [G,,G,]/[G,G]/[G,,G,]/ z/ [G,,G,]/[G,G]/[G,,G,]/ z/ [G,,G,]/[G,G]/[G,,G,]/ | %92
 [_G,_G]/[_G,,G,]/[G,G]/[G,,G,]/ [G,G]/[G,,G,]/[G,G]/[G,,G,]/ [G,G]/[G,,G,]/[G,G]/[G,,G,]/ | %93
 z/ [F,,F,]/[F,F]/[F,,F,]/ z/ [F,,F,]/[F,F]/[F,,F,]/ z/ [F,,F,]/[F,F]/[F,,F,]/ | %94
 [_F,_F]/[_F,,F,]/[F,F]/[F,,F,]/ [F,F]/[F,,F,]/[F,F]/[F,,F,]/ [F,F]/[F,,F,]/[F,F]/[F,,F,]/ | %95
!>(! z/ [E,,E,]/[E,E]/[E,,E,]/ z/ [E,,E,]/[E,E]/[E,,E,]/ z/ [E,,E,]/[E,E]/[E,,E,]/!>)! | %96
 D,/D/ z/ D/ z/ D/ z/ D/ z/ D/ z/ D/ | z/ D/ z/ D/ z/ D/ z/ D/ z/ D/ z/ D/ | %98
 z/ D/ z/ D/ z/ D/ z/ D/ z/ D/ z/ D/ | z/ D/ z/ D/ z/ D/ z/ D/ z/ D/ z/ D/ | z6 | %101
 G,,/G,/G,,/G,/ G,,/G,/G,,/G,/ G,,/G,/G,,/G,/ | G,,/G,/G,,/G,/ G,,/G,/G,,/G,/ G,,/G,/G,,/G,/ | %103
 C,/C/C,/C/ C,/C/C,/C/ C,/C/C,/C/ | C,/C/C,/C/ C,/C/C,/C/ C,/C/C,/C/ | %105
 E,/E/E,/E/ E,/E/E,/E/ E,/E/E,/E/ | E,/E/E,/E/ E,/E/E,/E/ E,/E/E,/E/ | %107
 G,/G/G,/G/ G,/G/G,/G/ G,/G/G,/G/ | G,G,, G,G,, G,G,, | G,G,, G,G,, G,G,, | %110
 [G,,G,]/ z/ z/ z/ z/ z/ z/ z/ z/ z/ z/ z/ | z6 | B,,G,, B,,G,, B,,G,, | [D,,D,]2 z4 | z6 | z6 | %116
!<(! z6!<)! | D,/D/C/B,/ A,/B,/A,/G,/ ^F,/E,/D,/C,/ | B,,,B,, B,,,B,, B,,,B,, | %119
 C,,/C,/C,,/C,/ C,,/C,/C,,/C,/ C,,/C,/C,,/C,/ | D,,/D,/D,,/D,/ D,,/D,/D,,/D,/ D,,/D,/D,,/D,/ | %121
 B,,,B,, B,,,B,, B,,,B,, | C,,/C,/C,,/C,/ C,,/C,/C,,/C,/ C,,/C,/C,,/C,/ | %123
 D,,/D,/D,,/D,/ D,,/D,/D,,/D,/ D,,/D,/D,,/D,/ | %124
 G,,,/G,,/G,,,/G,,/ G,,,/G,,/G,,,/G,,/ G,,,/G,,/G,,,/G,,/ | %125
 G,,,/G,,/G,,,/G,,/ G,,,/G,,/G,,,/G,,/ G,,,/G,,/G,,,/G,,/ | %126
 G,,,/G,,/G,,,/G,,/ G,,,/G,,/G,,,/G,,/ G,,,/G,,/G,,,/G,,/ |!ffff! [G,,,G,,]6 |] %128

